build/img/icon-photoshop.svg

<svg width="70" height="70" viewBox="0 0 70 70" fill="none" xmlns="http://www.w3.org/2000/svg">
  <path d="M3.18834 3.01758H66.4367V66.1184H3.18834V3.01758Z" fill="#0C0824"/>
  <path d="M3.18832 3.01597H66.4367V66.1168H3.18832V3.01597ZM0.3125 69.0664H69.3125V0.0664062H0.3125V69.0664ZM46.8308 28.3741C44.5588 28.3741 43.7825 29.5544 43.7825 30.5275C43.7825 31.589 44.3 32.3271 47.3483 33.9472C51.8629 36.189 53.2626 38.3399 53.2626 41.4967C53.2626 46.2155 49.7559 48.7506 45.0122 48.7506C42.9763 48.8279 40.9528 48.3941 39.1176 47.4868C38.9155 47.3984 38.8884 47.2518 38.8884 47.0142V42.6745C38.8884 42.3788 39.0314 42.2904 39.2334 42.4395C40.9569 43.5762 42.9631 44.1799 45.0122 44.1784C47.2842 44.1784 48.233 43.2053 48.233 41.8784C48.233 40.8168 47.5726 39.8741 44.6672 38.3399C40.5839 36.3356 38.8884 34.296 38.8884 30.9092C38.8884 27.1053 41.7914 23.951 46.8234 23.951C48.575 23.8739 50.3241 24.1548 51.9689 24.7775C52.0636 24.8406 52.1402 24.9284 52.1909 25.0319C52.2416 25.1354 52.2644 25.2508 52.2572 25.3664V29.4104C52.2572 29.6454 52.1142 29.7945 51.8259 29.7061C50.3058 28.8086 48.5772 28.35 46.8234 28.3792L46.8308 28.3741ZM22.1042 31.8822C22.7646 31.9404 23.2821 31.9404 24.4329 31.9404C27.7967 31.9404 30.9584 30.7322 30.9584 26.0438C30.9584 22.2981 28.6863 20.4126 24.8642 20.4126C23.7134 20.4126 22.6217 20.4707 22.1042 20.501V31.8822ZM16.9859 16.2119C16.9859 16.0046 17.3875 15.8581 17.6192 15.8581C19.46 15.7696 22.1904 15.7115 25.0367 15.7115C33.0012 15.7115 36.1062 20.1927 36.1062 25.9149C36.1062 33.4038 30.8154 36.6187 24.3196 36.6187C23.2279 36.6187 22.8533 36.5606 22.0771 36.5606V47.8837C22.0771 48.1187 21.9908 48.2375 21.7321 48.2375H17.3333C17.1041 48.2375 16.9883 48.149 16.9883 47.8837V16.2245L16.9859 16.2119Z" fill="#31C5F0"/>
</svg>

<svg width="70" height="70" fill="none" xmlns="http://www.w3.org/2000/svg"><path d="M3.188 3.018h63.249v63.1H3.188v-63.1z" fill="#0C0824"/><path d="M3.188 3.016h63.249v63.1H3.188v-63.1zM.312 69.066h69v-69h-69v69zm46.519-40.692c-2.272 0-3.049 1.18-3.049 2.154 0 1.061.518 1.8 3.566 3.42 4.515 2.241 5.915 4.392 5.915 7.549 0 4.718-3.507 7.254-8.25 7.254a12.245 12.245 0 01-5.895-1.264c-.203-.089-.23-.235-.23-.473v-4.34c0-.295.143-.384.345-.234a10.477 10.477 0 005.78 1.738c2.271 0 3.22-.973 3.22-2.3 0-1.061-.66-2.004-3.566-3.538-4.083-2.004-5.779-4.044-5.779-7.43 0-3.805 2.903-6.959 7.935-6.959a12.937 12.937 0 015.146.826.666.666 0 01.288.589v4.044c0 .235-.143.384-.431.296a9.522 9.522 0 00-5.003-1.327l.008-.005zm-24.727 3.508c.66.058 1.178.058 2.329.058 3.364 0 6.525-1.208 6.525-5.896 0-3.746-2.272-5.631-6.094-5.631-1.15 0-2.242.058-2.76.088v11.381zm-5.118-15.67c0-.207.401-.354.633-.354 1.841-.088 4.571-.147 7.418-.147 7.964 0 11.07 4.482 11.07 10.204 0 7.489-5.292 10.704-11.787 10.704-1.092 0-1.467-.058-2.243-.058v11.323c0 .235-.086.353-.345.353h-4.399c-.229 0-.345-.088-.345-.353v-31.66l-.002-.012z" fill="#31C5F0"/></svg>
